app/assets/hero-images/plugins/light.svg

<svg xmlns="http://www.w3.org/2000/svg" xmlns:xlink="http://www.w3.org/1999/xlink" fill="none" height="302" viewBox="46 12 228 257">
    <defs>
        <linearGradient id="logo-plugins-light-a" gradientUnits="userSpaceOnUse" x1="160.242" x2="160.242" y1="14.455" y2="267"><stop offset="0" stop-color="#cf0"/><stop offset=".538462" stop-color="#d1ef66"/><stop offset="1"
    stop-color="#d7ded4"/></linearGradient>
        <linearGradient id="logo-plugins-light-b" gradientUnits="userSpaceOnUse" x1="160.242" x2="160.242" y1="14.455" y2="267"><stop offset="0" stop-color="#4e780d"/><stop offset="1" stop-color="#d7ded4"/></linearGradient>
    </defs>
    <path d="m202.333 56.5458-28.061.0001v-28.0606c0-3.9752 1.345-7.3074 4.034-9.9966 2.689-2.6891 6.021-4.0337 9.997-4.0337 3.975 0 7.307 1.3446 9.996 4.0337 2.689 2.6892 4.034 6.0214 4.034 9.9966zm56.121
    0h-28.06v-28.0605c0-3.9752 1.344-7.3074 4.033-9.9966 2.689-2.6891 6.022-4.0337 9.997-4.0337s7.307 1.3446 9.996 4.0337c2.69 2.6892 4.034 6.0213 4.034 9.9966zm14.03 56.1212c0 7.717-2.747 14.323-8.242 19.818-5.496 5.495-12.101
    8.243-19.818 8.243v28.06h-56.121v-28.06c-7.717 0-14.323-2.748-19.818-8.243s-8.243-12.101-8.243-19.818v-42.0909h112.242zm-42.09 98.212c0 15.433-5.496 28.645-16.486 39.635-10.99 10.991-24.202 16.486-39.636 16.486-15.433
    0-28.645-5.495-39.635-16.486-10.99-10.99-16.486-24.202-16.486-39.635v-21.046c0-5.845-2.046-10.815-6.138-14.907s-9.061-6.138-14.907-6.138-10.815 2.046-14.9072 6.138-6.1383 9.062-6.1383 14.907v49.106c0 3.976-1.3445 7.308-4.0337
    9.997-2.6891 2.689-6.0213 4.034-9.9965 4.034-3.9753 0-7.3075-1.345-9.9966-4.034s-4.0337-6.021-4.0337-9.997v-49.106c0-13.562 4.7937-25.137 14.381-34.724 9.5874-9.588 21.1624-14.381 34.725-14.381 13.563 0 25.138 4.793 34.725
    14.381 9.587 9.587 14.381 21.162 14.381 34.724v21.046c0 7.717 2.748 14.322 8.243 19.818 5.495 5.495 12.101 8.242 19.817 8.242 7.717 0 14.323-2.747 19.818-8.242 5.495-5.496 8.243-12.101 8.243-19.818v-28.061h28.061z"
    fill="url(#logo-plugins-light-a)" fill-opacity=".4"/>
    <path d="m160.661 112.667v-41.6719h111.404v41.6719c0 7.605-2.702 14.104-8.12 19.521-5.417 5.418-11.917 8.121-19.521 8.121h-.419v28.06h-55.283v-28.06h-.419c-7.605
    0-14.104-2.703-19.522-8.121-5.417-5.417-8.12-11.916-8.12-19.521zm70.151-84.1817c0-3.8697 1.305-7.0934 3.912-9.7002 2.606-2.6067 5.83-3.9111 9.7-3.9111s7.093 1.3044 9.7 3.9111c2.607 2.6068 3.911 5.8305 3.911
    9.7002v27.6416h-27.223zm-182.3931 210.4537v-49.106c.0002-13.451 4.7492-24.92 14.2579-34.429 9.5087-9.508 20.9781-14.258 34.4296-14.258 13.4516.001 24.9196 4.75 34.4286 14.258 9.509 9.509 14.258 20.978 14.258 34.429v21.046c0
    7.829 2.792 14.541 8.365 20.114s12.286 8.365 20.114 8.365c7.829 0 14.542-2.792 20.115-8.365s8.365-12.285 8.365-20.114v-27.642h27.223v27.642c0 15.321-5.45 28.427-16.363 39.34-10.912 10.912-24.018 16.362-39.34 16.362-15.321
    0-28.427-5.45-39.339-16.362-10.913-10.913-16.363-24.019-16.363-39.34v-21.046c0-5.956-2.089-11.032-6.26-15.203-4.172-4.172-9.248-6.261-15.2036-6.261-5.9557 0-11.0325 2.089-15.2041 6.261-4.1714 4.171-6.2606 9.247-6.2607
    15.203v49.106c0 3.87-1.3044 7.094-3.9111 9.701-2.6067 2.606-5.8305 3.911-9.7002 3.911-3.8698 0-7.0935-1.305-9.7002-3.911-2.6067-2.607-3.9112-5.831-3.9112-9.701zm126.2721-210.4537c0-3.8697 1.305-7.0934 3.912-9.7001
    2.606-2.6068 5.83-3.9112 9.7-3.9112 3.869 0 7.093 1.3044 9.7 3.9111 2.607 2.6068 3.911 5.8305 3.911 9.7002v27.6416h-27.223z" stroke="url(#logo-plugins-light-b)" stroke-opacity=".1" stroke-width=".837628"/>
  </svg>

<svg xmlns="http://www.w3.org/2000/svg" height="302" viewBox="48 14.455 224.484 252.545" fill="none">
  <path d="M202.333 56.5458L174.272 56.5459L174.272 28.4853C174.272 24.5101 175.617 21.1779 178.306 18.4887C180.995 15.7996 184.327 14.455 188.303 14.455C192.278 14.455 195.61 15.7996 198.299 18.4887C200.988 21.1779 202.333
  24.5101 202.333 28.4853L202.333 56.5458ZM258.454 56.5458L230.394 56.5458L230.394 28.4853C230.394 24.5101 231.738 21.1779 234.427 18.4887C237.116 15.7996 240.449 14.455 244.424 14.455C248.399 14.455 251.731 15.7996 254.42
  18.4887C257.11 21.1779 258.454 24.51 258.454 28.4853L258.454 56.5458ZM272.484 112.667C272.484 120.384 269.737 126.99 264.242 132.485C258.746 137.98 252.141 140.728 244.424 140.728L244.424 168.788L188.303 168.788L188.303
  140.728C180.586 140.728 173.98 137.98 168.485 132.485C162.99 126.99 160.242 120.384 160.242 112.667L160.242 70.5761L272.484 70.5761L272.484 112.667ZM230.394 210.879C230.394 226.312 224.898 239.524 213.908 250.514C202.918
  261.505 189.706 267 174.272 267C158.839 267 145.627 261.505 134.637 250.514C123.647 239.524 118.151 226.312 118.151 210.879L118.151 189.833C118.151 183.988 116.105 179.018 112.013 174.926C107.921 170.834 102.952 168.788
  97.106 168.788C91.26 168.788 86.291 170.834 82.1988 174.926C78.1066 179.018 76.0605 183.988 76.0605 189.833L76.0605 238.939C76.0605 242.915 74.716 246.247 72.0268 248.936C69.3377 251.625 66.0055 252.97 62.0303 252.97C58.055
  252.97 54.7228 251.625 52.0337 248.936C49.3446 246.247 48 242.915 48 238.939L48 189.833C48 176.271 52.7937 164.696 62.381 155.109C71.9684 145.521 83.5434 140.728 97.106 140.728C110.669 140.728 122.244 145.521 131.831
  155.109C141.418 164.696 146.212 176.271 146.212 189.833L146.212 210.879C146.212 218.596 148.96 225.201 154.455 230.697C159.95 236.192 166.556 238.939 174.272 238.939C181.989 238.939 188.595 236.192 194.09 230.697C199.585
  225.201 202.333 218.596 202.333 210.879L202.333 182.818L230.394 182.818L230.394 210.879Z" fill="url(#paint0_linear_9915_38295)" fill-opacity="0.27"/>
  <path d="M160.742 112.667L160.742 71.0762L271.984 71.0762L271.984 112.667C271.984 120.25 269.29 126.729 263.888 132.131C258.486 137.533 252.007 140.228 244.424 140.228L243.924 140.228L243.924 168.288L188.803 168.288L188.803
  140.228L188.303 140.228C180.72 140.228 174.241 137.533 168.839 132.131C163.437 126.729 160.742 120.25 160.742 112.667ZM230.894 28.4853C230.894 24.636 232.191 21.4335 234.781 18.8428C237.372 16.252 240.575 14.9551 244.424
  14.9551C248.273 14.9551 251.476 16.252 254.066 18.8428C256.657 21.4335 257.954 24.636 257.954 28.4853L257.954 56.0459L230.894 56.0459L230.894 28.4853ZM48.5 238.939L48.5 189.833C48.5001 176.403 53.2409 164.955 62.7344
  155.462C72.2279 145.968 83.6764 141.228 97.1064 141.228C110.536 141.228 121.984 145.968 131.478 155.462C140.971 164.955 145.712 176.403 145.712 189.833L145.712 210.879C145.712 218.729 148.513 225.462 154.102 231.05C159.69
  236.638 166.422 239.439 174.272 239.439C182.123 239.439 188.855 236.638 194.443 231.05C200.032 225.462 202.833 218.729 202.833 210.879L202.833 183.318L229.894 183.318L229.894 210.879C229.894 226.179 224.452 239.264 213.555
  250.161C202.657 261.058 189.572 266.5 174.272 266.5C158.973 266.5 145.888 261.058 134.99 250.161C124.093 239.264 118.651 226.179 118.651 210.879L118.651 189.833C118.651 183.856 116.553 178.76 112.366 174.573C108.179 170.386
  103.083 168.288 97.1064 168.288C91.1294 168.288 86.0327 170.386 81.8457 174.573C77.6588 178.76 75.5607 183.856 75.5605 189.833L75.5605 238.939C75.5605 242.789 74.2636 245.991 71.6729 248.582C69.0821 251.173 65.8796 252.47
  62.0303 252.47C58.1809 252.47 54.9784 251.173 52.3877 248.582C49.797 245.991 48.5 242.789 48.5 238.939ZM174.772 28.4853C174.772 24.636 176.069 21.4335 178.66 18.8428C181.251 16.252 184.453 14.9551 188.303 14.9551C192.152
  14.9551 195.355 16.252 197.945 18.8428C200.536 21.4335 201.833 24.636 201.833 28.4853L201.833 56.0459L174.772 56.0459L174.772 28.4853Z" stroke="url(#paint1_linear_9915_38295)" stroke-opacity="0.1"/>
  <defs>
  <linearGradient id="paint0_linear_9915_38295" x1="160.242" y1="14.455" x2="160.242" y2="267" gradientUnits="userSpaceOnUse">
    <stop stop-color="#A7CF09"/>
    <stop offset="0.5" stop-color="#A7CF08" stop-opacity="0.5"/>
    <stop offset="1" stop-color="#D7DED4"/>
  </linearGradient>
  <linearGradient id="paint1_linear_9915_38295" x1="160.242" y1="14.455" x2="160.242" y2="267" gradientUnits="userSpaceOnUse">
    <stop stop-color="#4E780D"/>
    <stop offset="1" stop-color="#D7DED4"/>
  </linearGradient>
  </defs>
</svg>
